src/topics/icons/sqlite.svg

<svg height="228" preserveAspectRatio="xMidYMid" viewBox="0 0 512 228" width="512" xmlns="http://www.w3.org/2000/svg" xmlns:xlink="http://www.w3.org/1999/xlink"><linearGradient id="a" x1="57.661563%" x2="57.661558%" y1="2.046447%" y2="94.438752%"><stop offset="0" stop-color="#97d9f6"/><stop offset=".92024499" stop-color="#0f80cc"/><stop offset="1" stop-color="#0f80cc"/></linearGradient><path d="m194.519337 112.044206c-6.820773 0-12.366851 2.019005-16.618785 6.055249-4.251933 4.039779-6.408839 9.334997-6.408839 15.823211 0 3.362482.53569 6.428287 1.59116 9.237569 1.05547 2.814939 2.6979 5.422674 4.906077 7.779006 2.208177 2.358453 6.628067 5.562172 13.21547 9.635359 8.083094 4.934534 13.372818 8.939308 15.911602 12.066284 2.540553 3.124331 3.801105 6.398586 3.801105 9.812155 0 4.570519-1.50453 8.218873-4.596685 10.961326-3.097459 2.743697-7.239779 4.110497-12.375691 4.110497-5.417016 0-10.13569-1.909562-14.187845-5.701658-4.052155-3.797569-6.097679-8.820501-6.143646-15.116022h-2.519337v22.850829h2.519337c.76906-2.163808 1.83337-3.270718 3.226519-3.270718.670055 0 2.24.462143 4.685083 1.325967 5.949171 2.116766 10.834033 3.138121 14.674033 3.138121 6.617459 0 12.266077-2.317606 16.972376-7.027624 4.699226-4.707883 7.071823-10.38674 7.071823-17.016575 0-5.140862-1.566409-9.714747-4.640884-13.701643-3.074475-3.991691-9.053702-8.63471-17.98895-13.966851-7.68884-4.619513-12.679779-8.381878-14.983426-11.314917-2.307182-2.92881-3.491712-6.168567-3.491712-9.723757 0-3.845311 1.412596-6.93393 4.198895-9.237576 2.786298-2.305414 6.437127-3.447514 11.005524-3.447514 5.141216 0 9.426741 1.525746 12.81768 4.596685 3.387403 3.076243 5.346298 7.339138 5.922652 12.817687h2.519337v-19.801112h-2.342541c-.286409 1.009503-.551603 1.654806-.795581 1.944751-.236906.288177-.693038.441989-1.370165.441989-.815028 0-2.268288-.342983-4.331492-1.016574-4.41989-1.488619-8.495028-2.254144-12.243094-2.254144zm82.342541 0c-8.31116 0-15.856795 1.958895-22.674033 5.878453-6.827845 3.912486-12.232486 9.345414-16.220994 16.2652-3.986741 6.919242-5.966851 14.267913-5.966851 22.099448 0 10.521444 3.443978 19.894962 10.38674 28.110483 6.946299 8.210571 15.269835 13.326681 24.928177 15.292818 2.208177 1.150585 5.367514 4.120751 9.502763 8.928177 4.660331 5.425318 8.602872 9.338342 11.845303 11.668508 3.238895 2.331396 6.735912 4.040132 10.43094 5.171271 3.698563 1.126371 7.697679 1.679558 12.022099 1.679558 5.236685 0 9.925304-.910144 14.055249-2.784531l-.928177-2.298342c-2.397348.864714-4.953812 1.281768-7.646409 1.281768-3.654365 0-7.347624-1.205039-11.049724-3.62431-3.696795-2.425282-8.32-7.052545-13.834254-13.878453-2.591823-3.270718-4.380994-5.334276-5.392265-6.143646 10.567072-2.063558 19.256575-7.184973 26.033149-15.381216 6.774807-8.192707 10.165746-17.542874 10.165746-28.022085 0-12.442717-4.426961-22.899808-13.21547-31.425421-8.79558-8.526498-19.611933-12.81768-32.441989-12.81768zm51.403315 0 .132526 2.696133c5.533702 0 8.632929 1.630055 9.325967 4.906077.258122 1.172155.376575 3.336486.39779 6.453039l-.044128 59.624302c-.045967 4.453127-.680663 7.296353-1.900552 8.530387-1.221658 1.225193-3.28663 1.992486-6.276244 2.298342l-.132525 2.696133h55.160221l1.414364-13.524862h-2.519337c-.719558 3.68442-2.369061 6.323808-4.994475 7.823204-2.632486 1.510358-7.287514 2.254144-14.01105 2.254144h-5.215469c-6.049945 0-9.550498-2.187145-10.475138-6.585635-.19094-.870188-.256354-1.803146-.265194-2.82873l.220995-60.287285c-.001415-4.446056.560442-7.425415 1.723757-8.883978 1.17569-1.45326 3.295469-2.26652 6.36464-2.475138l-.132526-2.696133h-28.77348zm-50.519337 3.270718c9.373702 0 17.027183 3.691846 22.939227 11.138122 5.910276 7.448942 8.839779 17.658165 8.839779 30.585642 0 12.249968-2.971934 22.058601-8.928177 29.43645-5.956243 7.375558-13.883757 11.049724-23.734807 11.049724-9.463867 0-17.138563-3.788729-23.027624-11.403315-5.883757-7.614586-8.79558-17.500641-8.79558-29.657444 0-12.492376 2.947182-22.492472 8.883978-29.966858 5.93326-7.466431 13.878453-11.182321 23.823204-11.182321zm126.850829 12.817687c-1.345414 0-2.370829.454364-3.138121 1.370166-.784973.912251-1.025415 2.017223-.751382 3.359116.265194 1.301738.998895 2.442607 2.165746 3.403315 1.159779.959802 2.411492 1.458563 3.756906 1.458563 1.301216 0 2.293039-.498733 3.005525-1.458563.712486-.960708.929945-2.101577.662984-3.403315-.274034-1.341893-.982984-2.446865-2.077349-3.359116-1.10674-.915802-2.323093-1.370166-3.624309-1.370166zm36.375691 9.149171c-2.285967 8.794152-7.241547 13.553135-14.850829 14.320442l.088398 2.519337h8.883978l-.176796 29.790041c.014144 5.093127.169724 8.484067.530387 10.209945.875138 4.131897 3.573038 6.232044 8.088398 6.232044 6.532596 0 13.385193-3.979315 20.552486-11.933701l-2.165746-1.856354c-5.174807 5.238283-9.750276 7.867403-13.745856 7.867403-2.455691 0-3.977901-1.412243-4.552487-4.198895-.157348-.676773-.220994-1.467573-.220994-2.38674l.088398-33.723743h13.56906l-.132525-4.022099h-13.392266v-12.81768h-2.563536zm52.464088 11.226519c-7.589834 0-13.763536 3.68442-18.563536 11.005525-4.775248 7.333481-6.253259 15.458454-4.37569 24.397776 1.104972 5.236148 3.306077 9.294328 6.674033 12.154696 3.362652 2.859138 7.628729 4.287293 12.729281 4.287293 4.74873 0 11.360884-1.20238 14.143647-3.624309 2.789834-2.420516 5.360442-6.341842 7.734807-11.712707l-1.900553-1.988951c-3.786961 6.967514-11.429834 10.475138-17.19337 10.475138-7.923978 0-12.777017-4.347403-14.585635-12.994475-.235139-1.103742-.410166-2.289502-.530387-3.535911 9.42674-1.492509 16.571049-4.135433 21.392265-7.955801 4.81768-3.822476 9.654807-7.874292 8.751381-12.154682-.537458-2.543565-1.858121-4.543477-3.889503-6.055249-2.0579-1.511065-7.400663-2.298343-10.38674-2.298343zm-82.961326.309393-16.353591 3.756906v2.917127l5.657459-.707182c2.740331 0 4.352707 1.240935 4.861878 3.712707.171492.827233.279337 1.98895.309392 3.447514l-.176795 26.740317c-.045967 3.700331-.456133 5.851396-1.281768 6.497237-.832707.647072-3.028509.972376-6.585636.972376l-.088397 2.519337h25.944751l-.044128-2.519337c-3.604862 0-5.9421-.284457-6.983426-.839779-1.023646-.551772-1.72906-1.555971-2.033149-3.093923-.235138-1.108338-.337679-3.01807-.353591-5.657458l.088398-37.745842h-2.961326zm78.80663 4.950276c1.578784 0 3.10453.609761 4.640884 1.812155 1.515138 1.19815 2.438011 2.530468 2.740331 3.9779 1.479779 7.109134-4.822983 12.024023-19.005524 14.762417-.404862-5.183816.493259-9.889577 2.78453-14.143632 2.273591-4.249996 5.234917-6.40884 8.839779-6.40884z" fill="#003b57"/><path d="m157.887646 9.95179492h-140.7377675c-9.43239784 0-17.1498785 7.71889498-17.1498785 17.15093918v155.2074259c0 9.431506 7.71748066 17.149171 17.1498785 17.149171h92.6935695c-1.052098-46.121314 14.697722-135.6284862 48.044198-189.50753608z" fill="#0f80cc"/><path d="m152.774718 14.9551098h-135.6248395c-6.697547 0-12.14780115 5.4488398-12.14780115 12.1476243v143.8834989c30.71611045-11.788729 76.81726935-21.960698 108.69333565-21.498724 6.405558-33.49343 25.231431-99.1334179 39.079305-134.5323992z" fill="url(#a)"/><path d="m190.71505 4.8724579c-9.638895-8.5958011-21.309172-5.14298343-32.827404 5.07933702-1.709613 1.51867408-3.41569 3.20353588-5.112928 5.00331488-19.703867 20.9025415-37.99337 59.6207735-43.67558 89.1898342 2.213481 4.48884 3.942542 10.217017 5.081105 14.592707.291713 1.122652.555138 2.176354.765525 3.072707.500331 2.121371.769061 3.497017.769061 3.497017s-.176796-.668464-.901658-2.770387c-.1379-.403094-.291712-.843315-.473812-1.361326-.07779-.213922-.185635-.473812-.304088-.751381-1.285304-2.987845-4.840663-9.294144-6.405304-12.039779-1.338343 3.947845-2.521105 7.641105-3.51116 10.982542 4.517127 8.264839 7.269834 22.42864 7.269834 22.42864s-.238674-.917922-1.373702-4.121628c-1.007735-2.83351-6.026961-11.627675-7.215911-13.683631-2.033857 7.508162-2.8419893 12.577244-2.113238 13.811447 1.414895 2.391521 2.762431 6.51793 3.945724 11.081378 2.673149 10.280479 4.531271 22.795668 4.531271 22.795668s.06011.829341.160884 2.105635c-.371271 8.633282-.148509 17.584258.519779 25.674778.885745 10.709922 2.552928 19.910195 4.678011 24.834121l1.442651-.786556c-3.120441-9.700957-4.388066-22.414328-3.832928-37.075985.839779-22.410778 5.996906-49.437164 15.526188-77.606188 16.099006-42.5228728 38.435359-76.6408839 58.878232-92.9343645-18.632486 16.8274033-43.850608 71.2963535-51.399779 91.4669615-8.452596 22.587403-14.442431 43.783609-18.052596 64.09158 6.228508-19.038579 26.367292-27.222276 26.367292-27.222276s9.877569-12.181739 21.420553-29.585326c-6.914475 1.577016-18.268287 4.276685-22.07116 5.874917-5.609724 2.353149-7.121326 3.155801-7.121326 3.155801s18.171049-11.065635 33.760884-16.076022c21.44-33.767956 44.798232-81.7396687 21.27558-102.7235361" fill="#003b57"/></svg>

<?xml version="1.0" encoding="UTF-8" standalone="no"?>
<svg width="512px" height="228px" viewBox="0 0 512 228" version="1.1" xmlns="http://www.w3.org/2000/svg" xmlns:xlink="http://www.w3.org/1999/xlink" preserveAspectRatio="xMidYMid">
    <defs>
        <linearGradient x1="57.6615627%" y1="2.04644676%" x2="57.6615584%" y2="94.4387516%" id="linearGradient-1">
            <stop stop-color="#97D9F6" offset="0%"></stop>
            <stop stop-color="#0F80CC" offset="92.024499%"></stop>
            <stop stop-color="#0F80CC" offset="100%"></stop>
        </linearGradient>
</defs>
	<g>
		<path d="M194.519337,112.044206 C187.698564,112.044206 182.152486,114.063211 177.900552,118.099455 C173.648619,122.139234 171.491713,127.434452 171.491713,133.922666 C171.491713,137.285148 172.027403,140.350953 173.082873,143.160235 C174.138343,145.975174 175.780773,148.582909 177.98895,150.939241 C180.197127,153.297694 184.617017,156.501413 191.20442,160.5746 C199.287514,165.509134 204.577238,169.513908 207.116022,172.640884 C209.656575,175.765215 210.917127,179.03947 210.917127,182.453039 C210.917127,187.023558 209.412597,190.671912 206.320442,193.414365 C203.222983,196.158062 199.080663,197.524862 193.944751,197.524862 C188.527735,197.524862 183.809061,195.6153 179.756906,191.823204 C175.704751,188.025635 173.659227,183.002703 173.61326,176.707182 L171.093923,176.707182 L171.093923,199.558011 L173.61326,199.558011 C174.38232,197.394203 175.44663,196.287293 176.839779,196.287293 C177.509834,196.287293 179.079779,196.749436 181.524862,197.61326 C187.474033,199.730026 192.358895,200.751381 196.198895,200.751381 C202.816354,200.751381 208.464972,198.433775 213.171271,193.723757 C217.870497,189.015874 220.243094,183.337017 220.243094,176.707182 C220.243094,171.56632 218.676685,166.992435 215.60221,163.005539 C212.527735,159.013848 206.548508,154.370829 197.61326,149.038688 C189.92442,144.419175 184.933481,140.65681 182.629834,137.723771 C180.322652,134.794961 179.138122,131.555204 179.138122,128.000014 C179.138122,124.154703 180.550718,121.066084 183.337017,118.762438 C186.123315,116.457024 189.774144,115.314924 194.342541,115.314924 C199.483757,115.314924 203.769282,116.84067 207.160221,119.911609 C210.547624,122.987852 212.506519,127.250747 213.082873,132.729296 L215.60221,132.729296 L215.60221,112.928184 L213.259669,112.928184 C212.97326,113.937687 212.708066,114.58299 212.464088,114.872935 C212.227182,115.161112 211.77105,115.314924 211.093923,115.314924 C210.278895,115.314924 208.825635,114.971941 206.762431,114.29835 C202.342541,112.809731 198.267403,112.044206 194.519337,112.044206 L194.519337,112.044206 Z M276.861878,112.044206 C268.550718,112.044206 261.005083,114.003101 254.187845,117.922659 C247.36,121.835145 241.955359,127.268073 237.966851,134.187859 C233.98011,141.107101 232,148.455772 232,156.287307 C232,166.808751 235.443978,176.182269 242.38674,184.39779 C249.333039,192.608361 257.656575,197.724471 267.314917,199.690608 C269.523094,200.841193 272.682431,203.811359 276.81768,208.618785 C281.478011,214.044103 285.420552,217.957127 288.662983,220.287293 C291.901878,222.618689 295.398895,224.327425 299.093923,225.458564 C302.792486,226.584935 306.791602,227.138122 311.116022,227.138122 C316.352707,227.138122 321.041326,226.227978 325.171271,224.353591 L324.243094,222.055249 C321.845746,222.919963 319.289282,223.337017 316.596685,223.337017 C312.94232,223.337017 309.249061,222.131978 305.546961,219.712707 C301.850166,217.287425 297.226961,212.660162 291.712707,205.834254 C289.120884,202.563536 287.331713,200.499978 286.320442,199.690608 C296.887514,197.62705 305.577017,192.505635 312.353591,184.309392 C319.128398,176.116685 322.519337,166.766518 322.519337,156.287307 C322.519337,143.84459 318.092376,133.387499 309.303867,124.861886 C300.508287,116.335388 289.691934,112.044206 276.861878,112.044206 L276.861878,112.044206 Z M328.265193,112.044206 L328.397719,114.740339 C333.931421,114.740339 337.030648,116.370394 337.723686,119.646416 C337.981808,120.818571 338.100261,122.982902 338.121476,126.099455 L338.077348,185.723757 C338.031381,190.176884 337.396685,193.02011 336.176796,194.254144 C334.955138,195.479337 332.890166,196.24663 329.900552,196.552486 L329.768027,199.248619 L384.928248,199.248619 L386.342612,185.723757 L383.823275,185.723757 C383.103717,189.408177 381.454214,192.047565 378.8288,193.546961 C376.196314,195.057319 371.541286,195.801105 364.81775,195.801105 L359.602281,195.801105 C353.552336,195.801105 350.051783,193.61396 349.127143,189.21547 C348.936203,188.345282 348.870789,187.412324 348.861949,186.38674 L349.082944,126.099455 C349.081529,121.653399 349.643386,118.67404 350.806701,117.215477 C351.982391,115.762217 354.10217,114.948957 357.171341,114.740339 L357.038815,112.044206 L328.265335,112.044206 L328.265193,112.044206 Z M277.745856,115.314924 C287.119558,115.314924 294.773039,119.00677 300.685083,126.453046 C306.595359,133.901988 309.524862,144.111211 309.524862,157.038688 C309.524862,169.288656 306.552928,179.097289 300.596685,186.475138 C294.640442,193.850696 286.712928,197.524862 276.861878,197.524862 C267.398011,197.524862 259.723315,193.736133 253.834254,186.121547 C247.950497,178.506961 245.038674,168.620906 245.038674,156.464103 C245.038674,143.971727 247.985856,133.971631 253.922652,126.497245 C259.855912,119.030814 267.801105,115.314924 277.745856,115.314924 L277.745856,115.314924 Z M404.596685,128.132611 C403.251271,128.132611 402.225856,128.586975 401.458564,129.502777 C400.673591,130.415028 400.433149,131.52 400.707182,132.861893 C400.972376,134.163631 401.706077,135.3045 402.872928,136.265208 C404.032707,137.22501 405.28442,137.723771 406.629834,137.723771 C407.93105,137.723771 408.922873,137.225038 409.635359,136.265208 C410.347845,135.3045 410.565304,134.163631 410.298343,132.861893 C410.024309,131.52 409.315359,130.415028 408.220994,129.502777 C407.114254,128.586975 405.897901,128.132611 404.596685,128.132611 L404.596685,128.132611 Z M440.972376,137.281782 C438.686409,146.075934 433.730829,150.834917 426.121547,151.602224 L426.209945,154.121561 L435.093923,154.121561 L434.917127,183.911602 C434.931271,189.004729 435.086851,192.395669 435.447514,194.121547 C436.322652,198.253444 439.020552,200.353591 443.535912,200.353591 C450.068508,200.353591 456.921105,196.374276 464.088398,188.41989 L461.922652,186.563536 C456.747845,191.801819 452.172376,194.430939 448.176796,194.430939 C445.721105,194.430939 444.198895,193.018696 443.624309,190.232044 C443.466961,189.555271 443.403315,188.764471 443.403315,187.845304 L443.491713,154.121561 L457.060773,154.121561 L456.928248,150.099462 L443.535982,150.099462 L443.535982,137.281782 L440.972446,137.281782 L440.972376,137.281782 Z M493.436464,148.508301 C485.84663,148.508301 479.672928,152.192721 474.872928,159.513826 C470.09768,166.847307 468.619669,174.97228 470.497238,183.911602 C471.60221,189.14775 473.803315,193.20593 477.171271,196.066298 C480.533923,198.925436 484.8,200.353591 489.900552,200.353591 C494.649282,200.353591 501.261436,199.151211 504.044199,196.729282 C506.834033,194.308766 509.404641,190.38744 511.779006,185.016575 L509.878453,183.027624 C506.091492,189.995138 498.448619,193.502762 492.685083,193.502762 C484.761105,193.502762 479.908066,189.155359 478.099448,180.508287 C477.864309,179.404545 477.689282,178.218785 477.569061,176.972376 C486.995801,175.479867 494.14011,172.836943 498.961326,169.016575 C503.779006,165.194099 508.616133,161.142283 507.712707,156.861893 C507.175249,154.318328 505.854586,152.318416 503.823204,150.806644 C501.765304,149.295579 496.422541,148.508301 493.436464,148.508301 L493.436464,148.508301 Z M410.475138,148.817694 L394.121547,152.5746 L394.121547,155.491727 L399.779006,154.784545 C402.519337,154.784545 404.131713,156.02548 404.640884,158.497252 C404.812376,159.324485 404.920221,160.486202 404.950276,161.944766 L404.773481,188.685083 C404.727514,192.385414 404.317348,194.536479 403.491713,195.18232 C402.659006,195.829392 400.463204,196.154696 396.906077,196.154696 L396.81768,198.674033 L422.762431,198.674033 L422.718303,196.154696 C419.113441,196.154696 416.776203,195.870239 415.734877,195.314917 C414.711231,194.763145 414.005817,193.758946 413.701728,192.220994 C413.46659,191.112656 413.364049,189.202924 413.348137,186.563536 L413.436535,148.817694 L410.475209,148.817694 L410.475138,148.817694 Z M489.281768,153.76797 C490.860552,153.76797 492.386298,154.377731 493.922652,155.580125 C495.43779,156.778275 496.360663,158.110593 496.662983,159.558025 C498.142762,166.667159 491.84,171.582048 477.657459,174.320442 C477.252597,169.136626 478.150718,164.430865 480.441989,160.17681 C482.71558,155.926814 485.676906,153.76797 489.281768,153.76797 L489.281768,153.76797 Z" fill="#003B57"></path>
		<path d="M157.887646,9.95179492 L17.1498785,9.95179492 C7.71748066,9.95179492 1.42108547e-14,17.6706899 1.42108547e-14,27.1027341 L1.42108547e-14,182.31016 C1.42108547e-14,191.741666 7.71748066,199.459331 17.1498785,199.459331 L109.843448,199.459331 C108.79135,153.338017 124.54117,63.8308448 157.887646,9.95179492 L157.887646,9.95179492 Z" fill="#0F80CC"></path>
		<path d="M152.774718,14.9551098 L17.1498785,14.9551098 C10.4523315,14.9551098 5.00207735,20.4039496 5.00207735,27.1027341 L5.00207735,170.986233 C35.7181878,159.197504 81.8193467,149.025535 113.695413,149.487509 C120.100971,115.994079 138.926844,50.3540911 152.774718,14.9551098 L152.774718,14.9551098 Z" fill="url(#linearGradient-1)"></path>
		<path d="M190.71505,4.8724579 C181.076155,-3.7233432 169.405878,-0.270525525 157.887646,9.95179492 C156.178033,11.470469 154.471956,13.1553308 152.774718,14.9551098 C133.070851,35.8576513 114.781348,74.5758833 109.099138,104.144944 C111.312619,108.633784 113.04168,114.361961 114.180243,118.737651 C114.471956,119.860303 114.735381,120.914005 114.945768,121.810358 C115.446099,123.931729 115.714829,125.307375 115.714829,125.307375 C115.714829,125.307375 115.538033,124.638911 114.813171,122.536988 C114.675271,122.133894 114.521459,121.693673 114.339359,121.175662 C114.261569,120.96174 114.153724,120.70185 114.035271,120.424281 C112.749967,117.436436 109.194608,111.130137 107.629967,108.384502 C106.291624,112.332347 105.108862,116.025607 104.118807,119.367044 C108.635934,127.631883 111.388641,141.795684 111.388641,141.795684 C111.388641,141.795684 111.149967,140.877762 110.014939,137.674056 C109.007204,134.840546 103.987978,126.046381 102.799028,123.990425 C100.765171,131.498587 99.9570387,136.567669 100.68579,137.801872 C102.100685,140.193393 103.448221,144.319802 104.631514,148.88325 C107.304663,159.163729 109.162785,171.678918 109.162785,171.678918 C109.162785,171.678918 109.222895,172.508259 109.323669,173.784553 C108.952398,182.417835 109.17516,191.368811 109.843448,199.459331 C110.729193,210.169253 112.396376,219.369526 114.521459,224.293452 L115.96411,223.506896 C112.843669,213.805939 111.576044,201.092568 112.131182,186.430911 C112.970961,164.020133 118.128088,136.993747 127.65737,108.824723 C143.756376,66.3018502 166.092729,32.1838391 186.535602,15.8903585 C167.903116,32.7177618 142.684994,87.186712 135.135823,107.35732 C126.683227,129.944723 120.693392,151.140929 117.083227,171.4489 C123.311735,152.410321 143.450519,144.226624 143.450519,144.226624 C143.450519,144.226624 153.328088,132.044885 164.871072,114.641298 C157.956597,116.218314 146.602785,118.917983 142.799912,120.516215 C137.190188,122.869364 135.678586,123.672016 135.678586,123.672016 C135.678586,123.672016 153.849635,112.606381 169.43947,107.595994 C190.87947,73.828038 214.237702,25.8563253 190.71505,4.8724579" fill="#003B57"></path>
	</g>
</svg>
